icons/pediatric_surgery.svg

<svg width="48" height="48" viewBox="0 0 48 48" fill="none" xmlns="http://www.w3.org/2000/svg">
<path fill-rule="evenodd" clip-rule="evenodd" d="M25.8262 11C25.8262 14.3137 23.1399 17 19.8262 17C16.5125 17 13.8262 14.3137 13.8262 11C13.8262 7.68629 16.5125 5 19.8262 5C23.1399 5 25.8262 7.68629 25.8262 11ZM23.8262 11C23.8262 13.2091 22.0353 15 19.8262 15C17.617 15 15.8262 13.2091 15.8262 11C15.8262 8.79086 17.617 7 19.8262 7C22.0353 7 23.8262 8.79086 23.8262 11Z" fill="black"/>
<path fill-rule="evenodd" clip-rule="evenodd" d="M31.3261 17.995C31.6595 17.3283 32.0261 15.695 30.8261 14.495C29.6261 13.295 28.3261 13.5001 27.3261 13.995C26.8645 14.2235 26.4028 14.785 25.8537 15.4528C24.6187 16.9549 22.9412 18.995 19.8261 18.995C16.7111 18.995 15.0336 16.9549 13.7985 15.4528C13.2494 14.785 12.7878 14.2235 12.3261 13.995C11.3261 13.5001 10.0261 13.295 8.8261 14.495C7.6261 15.695 7.99277 17.3283 8.3261 17.995C9.77504 21.0998 11.5693 23.0192 13.8261 24V29C13.8261 29.1903 13.8505 29.4047 13.9016 29.6341C12.0149 31.3186 10.8262 33.7933 10.8262 36.5458C10.8262 37.5481 11.0136 39.0507 11.5543 40.3412C12.0813 41.599 13.1121 43.0001 14.9373 43.0001C16.7379 43.0001 18.1595 41.5136 18.1595 39.7275C18.1595 38.9548 17.8656 38.284 17.6592 37.8131L17.6315 37.7498C17.3976 37.2141 17.2706 36.8871 17.2706 36.5458C17.2706 36.2058 17.4496 35.6738 17.8112 35.0864C18.1429 34.5476 18.5448 34.0976 18.8579 33.8516C19.1773 33.9418 19.5041 34 19.8261 34C20.1482 34 20.475 33.9418 20.7944 33.8516C21.1075 34.0976 21.5094 34.5475 21.8411 35.0864C22.2028 35.6738 22.3817 36.2058 22.3817 36.5458C22.3817 36.8784 22.2542 37.2118 22.0191 37.7565L21.9896 37.8247C21.7851 38.2968 21.4928 38.9711 21.4928 39.7275C21.4928 41.5136 22.9145 43.0001 24.7151 43.0001C26.5337 43.0001 27.5548 41.5104 28.0729 40.2705C28.6164 38.97 28.8262 37.4722 28.8262 36.5458C28.8262 33.7933 27.6374 31.3185 25.7506 29.634C25.8017 29.4047 25.8261 29.1903 25.8261 29V24C28.083 23.0192 29.8772 21.0998 31.3261 17.995ZM10.127 17.1247L10.1385 17.1492C11.4517 19.9632 12.9468 21.4372 14.6233 22.1657L15.8261 22.6885V26H23.8261V22.6885L25.029 22.1657C26.7054 21.4372 28.2005 19.9632 29.5138 17.1492L29.5252 17.1247L29.5373 17.1005C29.5727 17.0298 29.6591 16.7778 29.6518 16.4969C29.6457 16.2629 29.5817 16.079 29.4119 15.9092C29.2618 15.7591 29.1461 15.6896 29.0733 15.6559C29.0022 15.623 28.9405 15.6094 28.8785 15.6056C28.7414 15.5972 28.5232 15.6348 28.2175 15.7854C28.2197 15.7844 28.2215 15.7834 28.2231 15.7827C28.2265 15.7811 28.2285 15.7804 28.2288 15.7809C28.2295 15.7818 28.223 15.788 28.2082 15.8022C28.1556 15.8525 27.9981 16.003 27.6873 16.3739C27.6101 16.4661 27.5243 16.5706 27.4309 16.6842C27.0837 17.1069 26.6326 17.6559 26.1351 18.1676C24.801 19.5399 22.8168 20.995 19.8261 20.995C16.8355 20.995 14.8512 19.5399 13.5171 18.1676C13.0197 17.6559 12.5686 17.1069 12.2214 16.6843C12.1281 16.5708 12.0421 16.466 11.9649 16.3739C11.6541 16.003 11.4966 15.8525 11.444 15.8022C11.4412 15.7995 11.4387 15.7971 11.4365 15.795C11.427 15.7859 11.4228 15.7816 11.4234 15.7809C11.4239 15.7802 11.4272 15.7817 11.4332 15.7847C11.1284 15.6347 10.9106 15.5972 10.7737 15.6056C10.7118 15.6094 10.65 15.623 10.5789 15.6559C10.5061 15.6896 10.3904 15.7591 10.2403 15.9092C10.0705 16.079 10.0065 16.2629 10.0004 16.4969C9.99313 16.7778 10.0796 17.0298 10.115 17.1005L10.127 17.1247ZM16.1997 29.9917C15.8941 29.5184 15.8261 29.1189 15.8261 29V28H23.8261V29C23.8261 29.1189 23.7581 29.5184 23.4525 29.9917C23.1683 30.4318 22.7179 30.8718 22.0414 31.1604C21.8508 31.2417 21.6366 31.3436 21.455 31.43L21.3514 31.4792C21.1293 31.5844 20.9233 31.6795 20.7181 31.7628C20.2826 31.9395 19.9972 32 19.8261 32C19.655 32 19.3696 31.9395 18.9342 31.7628C18.7289 31.6795 18.523 31.5844 18.3008 31.4792L18.1974 31.4301C18.0158 31.3437 17.8014 31.2417 17.6108 31.1604C16.9343 30.8718 16.4839 30.4318 16.1997 29.9917ZM12.8262 36.5458C12.8262 34.5814 13.5938 32.8055 14.8347 31.511C15.308 32.0944 15.962 32.6314 16.8261 33L16.8602 33.0147C16.5866 33.3281 16.3296 33.6781 16.1081 34.0379C15.6678 34.7531 15.2706 35.6643 15.2706 36.5458C15.2706 37.3429 15.5689 38.0248 15.7789 38.5051L15.7986 38.5501C16.0365 39.0948 16.1595 39.4073 16.1595 39.7275C16.1595 40.4516 15.5913 41.0001 14.9373 41.0001C14.3488 41.0001 13.8241 40.5831 13.3989 39.5684C12.9875 38.5863 12.8262 37.3618 12.8262 36.5458ZM23.5443 34.0379C23.3228 33.6781 23.0657 33.3281 22.7921 33.0146L22.8261 33C23.6903 32.6314 24.3443 32.0943 24.8176 31.5109C26.0585 32.8055 26.8262 34.5814 26.8262 36.5458C26.8262 37.2513 26.6533 38.4806 26.2276 39.4993C25.7766 40.5785 25.2421 41.0001 24.7151 41.0001C24.0611 41.0001 23.4928 40.4516 23.4928 39.7275C23.4928 39.4204 23.6156 39.1048 23.8554 38.5491L23.8752 38.5032C24.0842 38.02 24.3817 37.3317 24.3817 36.5458C24.3817 35.6643 23.9846 34.7531 23.5443 34.0379Z" fill="black"/>
<path fill-rule="evenodd" clip-rule="evenodd" d="M35.7309 37.8L34.1309 39L34.1309 30C34.1309 29.0303 34.5909 28.1681 35.3047 27.6197C34.5996 27.1776 34.1309 26.3936 34.1309 25.5L34.1309 11.5C34.1309 10.1193 35.2501 9 36.6309 9C38.0116 9 39.1309 10.1193 39.1309 11.5L39.1309 25.5C39.1309 26.1968 38.8458 26.8271 38.3859 27.2804C39.4263 27.7651 40.1718 28.8348 39.9656 30.1486C39.5688 32.6775 38.5263 34.5777 37.5813 35.8459C37.1089 36.4799 36.6591 36.9585 36.3222 37.2827C36.1536 37.4449 36.0127 37.569 35.9106 37.6551C35.8595 37.6982 35.8181 37.7317 35.7877 37.7559L35.7679 37.7715L35.7505 37.785L35.7384 37.7943L35.7341 37.7976L35.7323 37.7989L35.7309 37.8ZM35.1309 37C35.7309 37.8 35.7305 37.8003 35.7309 37.8L35.1309 37ZM37.1309 21.5858L36.1309 22.5858V20.4142L37.1309 19.4142V21.5858ZM36.1309 17.5858L37.1309 16.5858L37.1309 11.5C37.1309 11.2239 36.907 11 36.6309 11C36.3547 11 36.1309 11.2239 36.1309 11.5L36.1309 17.5858ZM36.1309 25.4142L37.1309 24.4142V25.5C37.1309 25.7761 36.907 26 36.6309 26C36.3547 26 36.1309 25.7761 36.1309 25.5V25.4142ZM36.1309 34.4398C36.8832 33.3766 37.6752 31.8438 37.9898 29.8386C38.0491 29.4606 37.7343 29 37.1309 29C36.5786 29 36.1309 29.4477 36.1309 30L36.1309 34.4398Z" fill="black"/>
</svg>

<svg
  xmlns="http://www.w3.org/2000/svg"
  width="24"
  height="24"
  viewBox="0 0 24 24"
  fill="none"
  stroke="currentColor"
  stroke-width="2"
  stroke-linecap="round"
  stroke-linejoin="round"
>
  <path
    fill-rule="evenodd"
    d="M25.826 11a6 6 0 1 1-12 0 6 6 0 0 1 12 0m-2 0a4 4 0 1 1-8 0 4 4 0 0 1 8 0"
    clip-rule="evenodd"
  />
  <path
    fill-rule="evenodd"
    d="M31.326 17.995c.334-.667.7-2.3-.5-3.5s-2.5-.995-3.5-.5c-.462.229-.923.79-1.472 1.458-1.235 1.502-2.913 3.542-6.028 3.542s-4.792-2.04-6.027-3.542c-.55-.668-1.011-1.23-1.473-1.458-1-.495-2.3-.7-3.5.5s-.833 2.833-.5 3.5c1.449 3.105 3.243 5.024 5.5 6.005v5c0 .19.024.405.076.634a9.24 9.24 0 0 0-3.076 6.912c0 1.002.188 2.505.728 3.795.527 1.258 1.558 2.66 3.383 2.66 1.8 0 3.223-1.487 3.223-3.273 0-.773-.294-1.444-.5-1.915l-.029-.063c-.233-.536-.36-.863-.36-1.204s.179-.872.54-1.46c.332-.538.734-.988 1.047-1.234.32.09.646.148.968.148s.649-.058.968-.148c.314.246.715.696 1.047 1.234.362.588.54 1.12.54 1.46 0 .332-.127.666-.362 1.21l-.03.069c-.204.472-.496 1.146-.496 1.902 0 1.787 1.422 3.273 3.222 3.273 1.819 0 2.84-1.49 3.358-2.73.543-1.3.753-2.798.753-3.724a9.24 9.24 0 0 0-3.075-6.912q.075-.347.075-.634v-5c2.257-.98 4.051-2.9 5.5-6.005m-21.199-.87.011.024c1.314 2.814 2.809 4.288 4.485 5.017l1.203.523V26h8v-3.311l1.203-.523c1.676-.729 3.172-2.203 4.485-5.017l.011-.024.012-.024c.036-.071.122-.323.115-.604a.8.8 0 0 0-.24-.588c-.15-.15-.266-.22-.339-.253a.5.5 0 0 0-.195-.05c-.137-.009-.355.029-.66.18q.003-.003.005-.003l.006-.002-.02.021c-.053.05-.21.201-.522.572l-.256.31c-.347.423-.798.972-1.296 1.484-1.334 1.372-3.318 2.827-6.309 2.827s-4.975-1.455-6.309-2.827a24 24 0 0 1-1.296-1.484l-.256-.31c-.31-.371-.468-.521-.521-.572l-.02-.021q0-.001.01.004c-.306-.15-.523-.188-.66-.18a.5.5 0 0 0-.195.05 1.2 1.2 0 0 0-.339.254.8.8 0 0 0-.24.588c-.007.28.08.533.115.604zM16.2 29.992c-.306-.474-.374-.873-.374-.992v-1h8v1c0 .119-.068.518-.373.992-.285.44-.735.88-1.412 1.168-.19.082-.404.184-.586.27l-.104.05c-.222.104-.428.2-.633.283-.435.176-.72.237-.892.237-.171 0-.456-.06-.892-.237a12 12 0 0 1-.633-.284l-.104-.049a17 17 0 0 0-.586-.27 3.1 3.1 0 0 1-1.411-1.168m-3.374 6.554c0-1.965.768-3.74 2.009-5.035A5.14 5.14 0 0 0 16.826 33l.034.015c-.273.313-.53.663-.752 1.023-.44.715-.837 1.626-.837 2.508 0 .797.298 1.479.508 1.96l.02.044c.238.545.36.857.36 1.178 0 .724-.568 1.272-1.222 1.272-.588 0-1.113-.417-1.538-1.432-.411-.982-.573-2.206-.573-3.022m10.718-2.508a8 8 0 0 0-.752-1.023l.034-.015a5.14 5.14 0 0 0 1.992-1.49 7.25 7.25 0 0 1 2.008 5.036c0 .705-.173 1.935-.598 2.953-.451 1.08-.986 1.501-1.513 1.501-.654 0-1.222-.548-1.222-1.273 0-.307.123-.622.362-1.178l.02-.046c.21-.483.507-1.171.507-1.957 0-.882-.397-1.793-.838-2.508"
    clip-rule="evenodd"
  />
  <path
    fill-rule="evenodd"
    d="m35.73 37.8-1.6 1.2v-9c0-.97.46-1.832 1.175-2.38a2.5 2.5 0 0 1-1.174-2.12v-14a2.5 2.5 0 1 1 5 0v14c0 .697-.285 1.327-.745 1.78 1.04.485 1.786 1.555 1.58 2.869a12.8 12.8 0 0 1-2.385 5.697 12 12 0 0 1-1.259 1.437 9 9 0 0 1-.534.473l-.02.016-.017.013-.013.01-.004.003h-.002zm-.6-.8.6.8zm2-15.414-1 1v-2.172l1-1zm-1-4 1-1V11.5a.5.5 0 0 0-1 0zm0 7.828 1-1V25.5a.5.5 0 0 1-1 0zm0 9.026a10.84 10.84 0 0 0 1.86-4.601c.06-.378-.256-.839-.86-.839a1 1 0 0 0-1 1z"
    clip-rule="evenodd"
  />
</svg>
